svg/u1f986.svg

<svg viewBox="0 0 128 128" xmlns="http://www.w3.org/2000/svg">
  <linearGradient id="SVGID_1_" gradientUnits="userSpaceOnUse" x1="47.4891" x2="51.0205" y1="11.504" y2="45.1025">
    <stop offset="0.1705" stop-color="#01AB46"/>
    <stop offset="0.3448" stop-color="#089E42"/>
    <stop offset="0.6711" stop-color="#1A7A37"/>
    <stop offset="1" stop-color="#2F502A"/>
  </linearGradient>
  <path d="M35.84,48.65c0,0,5.84-8.38,5.42-11.61c-0.42-3.24-1.55-3.94-4.79-5.07 c-3.24-1.13-5.14-2.89-5.14-2.89s-2.35-11.03-2.11-12.39c0.28-1.62,6.12-12.53,19.99-12.53c13.37,0,18.86,11.22,18.16,19.85 c-0.63,7.81-3.52,10-5.56,16.47c-2.04,6.48-3.03,10.35-3.03,10.35l-12.04,2.46l-10.07-2.18L35.84,48.65z" fill="url(#SVGID_1_)"/>
  <path d="M53.25,96.51c0,0,0.75,7.64-0.02,8.57c-0.78,0.93-12.44,3.63-13.76,4.62 c-1.43,1.07-0.82,3.47,2.22,6.24c3.04,2.77,5.59,3.25,7.34,2.53c2.06-0.84,5.63-3.57,7.23-4.79c1.28-0.98,3.2-3.06,3.46-4.73 c0.27-1.67-0.56-11.48-0.56-11.48L53.25,96.51z" fill="#FF5D10"/>
  <path d="M68.45,99.19c0,0,1.1,8.92,0.56,10c-1.41,2.82-9.47,9.16-10,11.26c-0.42,1.69,3.8,5.07,8.02,5.16 c5.64,0.13,9.17-2.1,9.57-3.33c0.56-1.74-1.55-11.97-1.83-12.53s0.14-15.06,0.14-15.06L68.45,99.19z" fill="#FF5D10"/>
  <path d="M98.66,54.49c0,0,4.8-0.94,4.82-4.2c0.01-3.26-1.74-1.84-1.76-4.21c-0.02-2.37,4.24-2.93,7.04-0.94 c2.21,1.57,7.26,6.68,6.98,17.29c-0.38,14.41-7.92,24.95-19.79,31.47c-9.68,5.31-23.96,4.68-23.96,4.68L98.66,54.49z" fill="#5E6367"/>
  <path d="M85.67,55.69c2.35-0.28,12.66-3.54,16.33-2.6c4.43,1.13,8.85,4.25,7.95,14.15 c-1.16,12.85-10.29,20.68-14.22,22.83C88.7,93.91,81.94,94,81.94,94S83.33,55.97,85.67,55.69z" fill="#B0B0B1"/>
  <path d="M7.12,25.07c0,1.2,7.46,4.72,14.5,5.56s11.4-0.28,11.4-0.28s-1.2-3.03-1.2-5.28s1.16-7.9-0.63-9.22 c-1.62-1.2-2.96,1.27-3.94,1.97c-0.99,0.7-3.8,2.67-8.17,2.82s-8.17-0.56-9.71,0.28S7.12,23.8,7.12,25.07z" fill="#FFBF18"/>
  <path d="M50.2,20.77c-0.42,1.75-1.61,3.12-3.94,2.75c-2.18-0.35-3.24-2.6-2.6-4.79 c0.5-1.73,1.79-2.9,3.97-2.53C50.13,16.62,50.6,19.08,50.2,20.77z" fill="#2D2B33"/>
  <path d="M50.92,25.57c2.47-0.78,4.3-0.79,4.04-2.47c-0.3-1.93-3.51-1.38-5.55-0.3 c-2.17,1.15-4.99,3.11-3.74,4.7C47,29.19,49.5,26.02,50.92,25.57z" fill="#73DF86"/>
  <path d="M33.16,51.6c0,0,2.16,9.43,12.95,7.84c7.71-1.14,13.42-4.97,13.42-4.97l0.09-6.29 c0,0-5.12,3-11.26,2.91c-6.38-0.09-11.92-3.38-11.92-3.38L33.16,51.6z" fill="#FFFFFF"/>
  <path d="M26.03,69.11C25.28,89.56,40.7,99.28,65.17,99.7c27.12,0.47,37.61-15.44,39.23-25.43 c1.69-10.45-5.07-12.67-5.07-12.67s6.76-2.82,3.73-9.5c-1.41-0.28-8.35,1.57-21.54,0.21c-13.1-1.35-22.08,0.94-22.08,0.94 s-3.28,3.57-12.67,3.1c-11.25-0.56-13.42-4.97-13.42-4.97S26.5,56.39,26.03,69.11z" fill="#84574E"/>
  <path d="M52.03,73.14c2.28,7.9,10.42,12.67,22.52,12.11c10.98-0.51,18.96-8.17,20.27-14.92 c1.43-7.34-1.55-10.14-1.55-10.14s6.34-2.3,6.34-6.76c-3.57-2.16-14.92-3.66-27.5-4.13c-8.16-0.3-12.76,2.72-12.76,2.72 S47.8,58.5,52.03,73.14z" fill="#B79277"/>
  <path d="M76.05,54.84" fill="#B0B0B1"/>
</svg>

<svg viewBox="0 0 128 128" xmlns="http://www.w3.org/2000/svg">
  <defs>
    <linearGradient id="SVGID_1_" gradientUnits="userSpaceOnUse" x1="47.4891" x2="51.0205" y1="11.504" y2="45.1025">
      <stop offset="0.1705" stop-color="#01AB46"/>
      <stop offset="0.3448" stop-color="#089E42"/>
      <stop offset="0.6711" stop-color="#1A7A37"/>
      <stop offset="1" stop-color="#2F502A"/>
    </linearGradient>
  </defs>
  <path d="M35.84,48.65 C35.84,48.65 41.68,40.27 41.26,37.04 C40.84,33.8 39.71,33.1 36.47,31.97 C33.23,30.84 31.33,29.08 31.33,29.08 C31.33,29.08 28.98,18.05 29.22,16.69 C29.5,15.07 35.34,4.16 49.21,4.16 C62.58,4.16 68.07,15.38 67.37,24.01 C66.74,31.82 63.85,34.01 61.81,40.48 C59.77,46.96 58.78,50.83 58.78,50.83 L46.74,53.29 L36.67,51.11 L35.84,48.65 Z" fill="url(#SVGID_1_)"/>
  <path d="M53.25,96.51 C53.25,96.51 54,104.15 53.23,105.08 C52.45,106.01 40.79,108.71 39.47,109.7 C38.04,110.77 38.65,113.17 41.69,115.94 C44.73,118.71 47.28,119.19 49.03,118.47 C51.09,117.63 54.66,114.9 56.26,113.68 C57.54,112.7 59.46,110.62 59.72,108.95 C59.99,107.28 59.16,97.47 59.16,97.47 L53.25,96.51 Z" fill="#FF5D10"/>
  <path d="M68.45,99.19 C68.45,99.19 69.55,108.11 69.01,109.19 C67.6,112.01 59.54,118.35 59.01,120.45 C58.59,122.14 62.81,125.52 67.03,125.61 C72.67,125.74 76.2,123.51 76.6,122.28 C77.16,120.54 75.05,110.31 74.77,109.75 C74.49,109.19 74.91,94.69 74.91,94.69 L68.45,99.19 Z" fill="#FF5D10"/>
  <path d="M98.66,54.49 C98.66,54.49 103.46,53.55 103.48,50.29 C103.49,47.03 101.74,48.45 101.72,46.08 C101.7,43.71 105.96,43.15 108.76,45.14 C110.97,46.71 116.02,51.82 115.74,62.43 C115.36,76.84 107.82,87.38 95.95,93.9 C86.27,99.21 71.99,98.58 71.99,98.58 L98.66,54.49 Z" fill="#5E6367"/>
  <path d="M85.67,55.69 C88.02,55.41 98.33,52.15 102,53.09 C106.43,54.22 110.85,57.34 109.95,67.24 C108.79,80.09 99.66,87.92 95.73,90.07 C88.7,93.91 81.94,94 81.94,94 C81.94,94 83.33,55.97 85.67,55.69 Z" fill="#B0B0B1"/>
  <path d="M7.12,25.07 C7.12,26.27 14.58,29.79 21.62,30.63 C28.66,31.47 33.02,30.35 33.02,30.35 C33.02,30.35 31.82,27.32 31.82,25.07 C31.82,22.82 32.98,17.17 31.19,15.85 C29.57,14.65 28.23,17.12 27.25,17.82 C26.26,18.52 23.45,20.49 19.08,20.64 C14.71,20.79 10.91,20.08 9.37,20.92 C7.83,21.76 7.12,23.8 7.12,25.07 Z" fill="#FFBF18"/>
  <path d="M50.2,20.77 C49.78,22.52 48.59,23.89 46.26,23.52 C44.08,23.17 43.02,20.92 43.66,18.73 C44.16,17 45.45,15.83 47.63,16.2 C50.13,16.62 50.6,19.08 50.2,20.77 Z" fill="#2D2B33"/>
  <path d="M50.92,25.57 C53.39,24.79 55.22,24.78 54.96,23.1 C54.66,21.17 51.45,21.72 49.41,22.8 C47.24,23.95 44.42,25.91 45.67,27.5 C47,29.19 49.5,26.02 50.92,25.57 Z" fill="#73DF86"/>
  <path d="M33.16,51.6 C33.16,51.6 35.32,61.03 46.11,59.44 C53.82,58.3 59.53,54.47 59.53,54.47 L59.62,48.18 C59.62,48.18 54.5,51.18 48.36,51.09 C41.98,51 36.44,47.71 36.44,47.71 L33.16,51.6 Z" fill="#FFFFFF"/>
  <path d="M26.03,69.11 C25.28,89.56 40.7,99.28 65.17,99.7 C92.29,100.17 102.78,84.26 104.4,74.27 C106.09,63.82 99.33,61.6 99.33,61.6 C99.33,61.6 106.09,58.78 103.06,52.1 C101.65,51.82 94.71,53.67 81.52,52.31 C68.42,50.96 59.44,53.25 59.44,53.25 C59.44,53.25 56.16,56.82 46.77,56.35 C35.52,55.79 33.35,51.38 33.35,51.38 C33.35,51.38 26.5,56.39 26.03,69.11 Z" fill="#84574E"/>
  <path d="M52.03,73.14 C54.31,81.04 62.45,85.81 74.55,85.25 C85.53,84.74 93.51,77.08 94.82,70.33 C96.25,62.99 93.27,60.19 93.27,60.19 C93.27,60.19 99.61,57.89 99.61,53.43 C96.04,51.27 84.69,49.77 72.11,49.3 C63.95,49 59.35,52.02 59.35,52.02 C59.35,52.02 47.8,58.5 52.03,73.14 Z" fill="#B79277"/>
</svg>
